config/expand/iconfont/module-menu/module-yehuguanli_active.svg

<?xml version="1.0" encoding="UTF-8"?>
<svg width="20px" height="22px" viewBox="0 0 20 22" version="1.1" xmlns="http://www.w3.org/2000/svg" xmlns:xlink="http://www.w3.org/1999/xlink">
    <!-- Generator: Sketch 53 (72520) - https://sketchapp.com -->
    <title>yehuguanliActive</title>
    <desc>Created with Sketch.</desc>
    <g id="Page-2" stroke="none" stroke-width="1" fill="none" fill-rule="evenodd">
        <g id="图标" transform="translate(-994.000000, -242.000000)" fill="#FFFFFF">
            <g id="yehuguanliActive" transform="translate(994.000000, 242.000000)">
                <path d="M6.89946177,10.0749872 C4.78114302,8.67727587 4.24477591,5.9172335 5.34582873,3.66257058 C6.44688154,1.40790766 9.40955103,0.118126481 11.8532361,0.849574309 C14.2969211,1.58102214 16.0703828,4.15863335 15.6914504,6.62944254 C15.312518,9.10025173 13.0556616,11.3597639 10.5,11.3597639 C7.61565822,11.3597639 1.51104092,14.6016906 2.18990507,19.9202853 C2.16547061,20.2504891 1.51104092,20.707579 0.928499867,20.707579 C0.34595881,20.707579 0.0244350301,20.2504891 5.63095042e-07,19.9202853 C-0.00150804958,15.4324972 2.49211128,11.3303099 6.89946177,10.0749872 Z M10.3201622,9.31934235 C12.3656613,9.31934235 13.7738165,8.04328695 13.7738165,6.04363527 C13.7738165,4.04398359 12.3656613,2.79340115 10.3201622,2.79340115 C8.27466315,2.79340115 6.86747669,4.04398359 6.86747669,6.04363527 C6.86747669,8.04328695 8.27466315,9.31934235 10.3201622,9.31934235 Z" id="Shape" fill-rule="nonzero"></path>
                <path d="M9.88908767,15.266482 L14.406034,11.9861962 C14.6350216,11.8206932 14.947688,11.8206932 15.1766757,11.9861962 L19.693622,15.266482 C19.8572841,15.3855024 19.953555,15.5733133 19.9531192,15.7727239 L19.9531192,20.693679 C19.9531089,21.041998 19.6645896,21.3245266 19.3082914,21.3251178 L10.2744183,21.3251178 C9.9181354,21.3245055 9.62963988,21.0419831 9.62962963,20.693679 L9.62962963,15.7727239 C9.62962963,15.5745752 9.72762623,15.3851531 9.88910724,15.266482 L9.88908767,15.266482 Z M13.286454,20.0633118 C13.2870977,20.1177407 16.2508773,20.1182294 16.2492758,20.0645791 L16.2492758,17.6705627 C16.2029186,17.2829184 15.5534406,16.9802902 14.7678649,16.9802902 C13.9822891,16.9802902 13.3328112,17.2829184 13.286454,17.6705627 L13.286454,20.0633118 Z" id="Combined-Shape"></path>
            </g>
        </g>
    </g>
</svg>

<svg width="20" height="22" xmlns="http://www.w3.org/2000/svg"><path d="M6.9 10.075C4.78 8.677 4.244 5.917 5.345 3.663 6.446 1.408 9.41.118 11.853.85c2.444.731 4.217 3.309 3.838 5.78-.378 2.47-2.635 4.73-5.191 4.73-2.884 0-8.989 3.242-8.31 8.56-.025.33-.679.788-1.262.788-.582 0-.904-.458-.928-.788-.002-4.488 2.492-8.59 6.9-9.845zm3.42-.756c2.046 0 3.454-1.276 3.454-3.275 0-2-1.408-3.25-3.454-3.25-2.045 0-3.453 1.25-3.453 3.25s1.408 3.275 3.453 3.275zM9.89 15.266l4.516-3.28a.66.66 0 01.77 0l4.518 3.28a.63.63 0 01.26.507v4.92a.64.64 0 01-.646.632h-9.034a.639.639 0 01-.644-.631v-4.921c0-.198.098-.388.26-.507zm3.396 4.797c.001.055 2.965.055 2.963.002V17.67c-.046-.388-.696-.69-1.481-.69-.786 0-1.435.302-1.482.69v2.392z"/></svg>
